!!!!SEGMENT: pl-kk--kk-i-382--093-006_haslinger--msza-sanctus.krn
!!!cenid: 18xx:1602
!!!COM: Haslinger
!!!COM-rismid: pe30052852
!!!CDT:
!!!CNT:
!!!OPR: Msza
!!!OTL: Sanctus
!!!OMV: 006
!!!PDT:
!!!AGN: Sacred; Mass
!!!SMS-siglum: PL-Kk
!!!SMS-shelfmark: Kk.I.382
!!!SMS-shelfwork: 093-006 M
!!!SMS-variant:
!!!SMS-altvar:
!!!NIFC-rismid: 1001142971
!!!URL-scan: http://repozytorium.nifc.pl/skany/pl-kk-nut--i-382
!!!ONB-nifc: S/T1 0061, T2 0134-0135, A/B1 0205, B2 0277-278. Części Mszy: 1. Kyrie, 2. Gloria, 3. Graduale, 4. Credo, 5. Offertorium, 6. Sanctus, 7. Benedictus, 8. Agnus
!!!AIN: 1 alto 1 bass 2 tenor
!!!key:
**kern	**text	**dynam	**kern	**text	**dynam	**kern	**text	**dynam	**kern	**text	**dynam
*part4	*part4	*part4	*part2	*part2	*part2	*part3	*part3	*part3	*part1	*part1	*part1
*staff4	*staff4	*	*staff2	*staff2	*	*staff3	*staff3	*	*staff1	*staff1	*
*Ibass	*	*	*Itenor	*	*	*Ialto	*	*	*Itenor	*	*
*I"Basso II	*	*	*I"Tenore II	*	*	*I"Alto vel Basso I	*	*	*I"Soprano vel Tenore I.	*	*
*I'B 2	*	*	*I'T 2	*	*	*I'A (B 1)	*	*	*I'S (T 1)	*	*
*clefF4	*	*	*clefG2	*	*	*clefF4	*	*	*clefG2	*	*
*k[b-e-a-]	*	*	*k[b-e-a-]	*	*	*k[b-e-a-]	*	*	*k[b-e-a-]	*	*
*E-:	*	*	*E-:	*	*	*E-:	*	*	*E-:	*	*
*M2/2	*	*	*M2/2	*	*	*M2/2	*	*	*M2/2	*	*
*met(c)	*	*	*met(c)	*	*	*met(c)	*	*	*met(c)	*	*
=1	=1	=1	=1	=1	=1	=1	=1	=1	=1	=1	=1
*2\right	*	*	*2\right	*	*	*2\right	*	*	*2\right	*	*
!LO:TX:i:a:t=Sanctus	!	!	!LO:TX:i:a:t=Sanctus	!	!	!LO:TX:i:a:t=Sanctus	!	!	!LO:TX:i:a:t=Sanctus	!	!
!LO:TX:t=P:problem=napis "Sanctus" na pięciolinii przed kluczem	!	!	!LO:TX:t=P:problem=napis "Sanctus" na pięciolinii przed kluczem	!	!	!LO:TX:t=P:problem=napis "Sanctus" na pięciolinii przed kluczem	!	!	!LO:TX:t=P:problem=napis "Sanctus" na pięciolinii przed kluczem	!	!
!LO:TX:i:a:t=And&colon; maestoso	!	!	!	!	!	!	!	!	!LO:TX:i:a:t=Andante Maestoso	!	!
!LO:TX:t=P::problem= napis "And&colon; maestoso" pod słowem "Sanctus"	!	!	!	!	!	!	!	!	!LO:TX:t=P:global:problem=oznaczenia dynamiczne na pięciolinii przed daną nutą	!	!
!LO:TX:t=P:problem=all\right&colon; global	!	!	!LO:TX:t=P:problem=all\right&colon; global	!	!	!LO:TX:t=P:problem=all\right&colon; global	!	!	!LO:TX:t=P:problem=all\right&colon; global	!	!
!	!	!LO:DY:a:rj	!	!	!LO:DY:a:rj	!	!	!LO:DY:a:rj	!LO:TX:t=P:problem=w źródle met(c|)	!	!LO:DY:a:rj
(>2E-\	San-	f	2.b-\	San-	f	2G\	San-	f	(>2ee-\	San-	f
4BB-/)	.	.	.	.	.	4F\	.	.	4dd\)	.	.
!	!	!	!LO:TX	!	!	!	!	!	!	!	!
4GG/	-ctus	.	4b-\	-ctus	.	4E-\	-ctus	.	4ee-\	-ctus	.
=2	=2	=2	=2	=2	=2	=2	=2	=2	=2	=2	=2
*	*	*	*	*ij	*	*	*	*	*	*	*
2AA-/	San-	.	2a-/	San-	.	2E-\	San-	.	2cc\	San-	.
2AA-;>/	-ctus	.	2a-;>/	-ctus	.	2E-;>\	-ctus	.	2cc;>\	-ctus	.
=3	=3	=3	=3	=3	=3	=3	=3	=3	=3	=3	=3
!	!	!LO:DY:a:rj	!	!	!LO:DY:a:rj	!	!	!LO:DY:a:rj	!	!	!LO:DY:a:rj
(>2AA-/	San-	f	2.cc\	San-	f	(>2A-\	San-	f	(>2ff\	San-	f
4GG/)	.	.	.	.	.	4En\	.	.	4gg\)	.	.
4FF/	-ctus	.	4cc\	-ctus	.	4F\)	-ctus	.	4aa-\	-ctus	.
*	*	*	*	*Xij	*	*	*	*	*	*	*
!LO:LB:g=original	!	!	!LO:LB:g=original	!	!	!	!	!	!LO:LB:g=original	!	!
=4	=4	=4	=4	=4	=4	=4	=4	=4	=4	=4	=4
*	*ij	*	*	*	*	*	*	*	*	*	*
2BB-/	San-	.	2b-\	San-	.	2F\	San-	.	2dd\	san-	.
2BB-;>/	-ctus	.	2b-;>\	-ctus	.	2F;>\	-ctus	.	2dd;>\	-ctus	.
!	!	!	!	!	!	!LO:LB:g=original	!	!	!	!	!
=5	=5	=5	=5	=5	=5	=5	=5	=5	=5	=5	=5
!	!	!	!	!	!LO:DY:a:rj	!	!	!LO:DY:a:rj	!	!	!LO:DY:a:rj
2BBn/	San-	.	(>2a-/	San-	f	(>2F\	San-	f	(>2dd\	San-	f
4C/	.	.	4g/)	.	.	4E-X\)	.	.	4ee-\)	.	.
4AA-/	-ctus	.	4cc\	-ctus	.	4C\	-ctus	.	4ff\	-ctus	.
=6	=6	=6	=6	=6	=6	=6	=6	=6	=6	=6	=6
2GG/	San-	.	2bn\	san-	.	2D/	San-	.	2gg\	san-	.
2GG;>/	-ctus	.	2b;>\	-ctus	.	2D;>/	-ctus	.	2gg;<\	-ctus	.
*	*Xij	*	*	*	*	*	*	*	*	*	*
=7	=7	=7	=7	=7	=7	=7	=7	=7	=7	=7	=7
!	!	!LO:DY:a:rj	!	!	!LO:DY:a:t=po:rj	!	!	!LO:DY:a:rj	!	!	!LO:DY:a:t=po.:rj
4C/	Do-	p	4g/	Do-	p	4E-\	Do-	p	4ee-\	Do-	p
8C/	-mi-	.	8cc\	-mi-	.	8G\	-mi-	.	8ee-\	-mi-	.
8C/	-nus	.	8cc\	-nus	.	8G\	-nus	.	8ee-\	-nus	.
4AA-/	De-	.	4cc\	De-	.	4A-\	De-	.	4ff\	De-	.
4AA-/	-us	.	4cc\	-us	.	4A-\	-us	.	4ff\	-us	.
!	!	!	!LO:LB:g=original	!	!	!	!	!	!LO:LB:g=original	!	!
=8	=8	=8	=8	=8	=8	=8	=8	=8	=8	=8	=8
4.BB-X/	sa-	.	4.a-/	Sa-	.	4.F\	sa-	.	4.dd\	Sa-	.
8BB-/	-ba-	.	8a-/	-ba-	.	8F\	-ba-	.	8dd\	-ba-	.
4E-\	-oth	.	4g/	-oth	.	4G\	-oth	.	4ee-\	-oth	.
4r	.	.	4r	.	.	4r	.	.	4r	.	.
!LO:LB:g=original	!	!	!	!	!	!LO:LB:g=original	!	!	!	!	!
=9	=9	=9	=9	=9	=9	=9	=9	=9	=9	=9	=9
!	!	!LO:DY:a:rj	!	!	!LO:DY:a:rj	!	!	!LO:DY:a:rj	!	!	!LO:DY:a:rj
4BB-/	Ple-	f	4dd\	Ple-	f	4B-\	Ple-	f	4ff\	Ple-	f
8BB-/	-ni	.	8dd\	-ni	.	8B-\	-ni	.	8ff\	-ni	.
8BB-/	sunt	.	8dd\	sunt	.	8B-\	sunt	.	8ff\	sunt	.
!	!	!	!	!	!	!LO:SIC:l:v:s=coe-	!	!	!	!	!
4AAn/	coe-	.	4cc\	coe-	.	4c\	co-	.	4ff\	coe-	.
4AA/	-li	.	4cc\	-li	.	4F\	-li	.	4ff\	-li	.
=10	=10	=10	=10	=10	=10	=10	=10	=10	=10	=10	=10
!	!	!LO:DY:a:rj	!	!	!LO:DY:a:rj	!	!	!LO:DY:a:rj	!	!	!LO:DY:a:rj
4E-\	et	p	4an/	coe-	p	4F\	coe-	p	4cc\	coe-	p
8E-\	ter-	.	8a/	-li	.	8F\	-li	.	8cc\	-li	.
8E-\	-[[t]]ra	.	8a/	et	.	8F\	et	.	8cc\	et	.
4D\	ter-	.	4b-\	ter-	.	4F\	ter-	.	4b-\	ter-	.
4D\	-ra	.	4b-\	-ra	.	4F\	-ra	.	4b-\	-ra	.
!	!	!	!LO:LB:g=original	!	!	!	!	!	!LO:LB:g=original	!	!
=11	=11	=11	=11	=11	=11	=11	=11	=11	=11	=11	=11
!	!	!LO:DY:a:rj	!	!	!LO:DY:a:rj	!	!	!LO:DY:a:rj	!	!	!LO:DY:a:rj
4.E-\	glo-	f	4.b-\	glo-	f	4.E-\	glo-	f	4.gg\	glo-	f
8E-\	-ri-	.	8b-\	-ri-	.	8G\	-ri-	.	8gg\	-ri-	.
2D\	-a	.	2bn\	-a	.	2G\	-a	.	2ff\	-a	.
!LO:LB:g=original	!	!	!	!	!	!LO:LB:g=original	!	!	!	!	!
=12	=12	=12	=12	=12	=12	=12	=12	=12	=12	=12	=12
(<4C/	glo-	.	2cc\	glo-	.	(>4G\	glo-	.	2ee-\	glo-	.
4AAn/)	.	.	.	.	.	4F\)	.	.	.	.	.
4BB-/	-ri-	.	4b-X\	-ri-	.	4F\	-ri-	.	4dd\	-ri-	.
4E-\	-a	.	4b-\	-a	.	4G\	-a	.	4cc\	-a	.
=13	=13	=13	=13	=13	=13	=13	=13	=13	=13	=13	=13
!	!	!LO:DY:a:rj	!	!	!	!	!	!LO:DY:a:rj	!	!	!
(>2F\	tu-	p	(>2b-\	tu-	.	(>2.F\	tu-	p	1cc	tu-	.
2FF/)	.	.	2an\)	.	.	.	.	.	.	.	.
.	.	.	.	.	.	4E-\)	.	.	.	.	.
=14	=14	=14	=14	=14	=14	=14	=14	=14	=14	=14	=14
1BB-;>	-a	.	2.f;/	-a	.	2D;>\	-a	.	2.b-;>\	-a	.
.	.	.	.	.	.	2ryy	.	.	.	.	.
.	.	.	4ryy	.	.	.	.	.	4ryy	.	.
=15||	=15||	=15||	=15||	=15||	=15||	=15||	=15||	=15||	=15||	=15||	=15||
*clefF4	*	*	*	*	*	*clefF4	*	*	*	*	*
*k[b-e-a-]	*	*	*k[b-e-a-]	*	*	*k[b-e-a-]	*	*	*k[b-e-a-]	*	*
*M3/4	*	*	*M3/4	*	*	*M3/4	*	*	*M3/4	*	*
!LO:TX:t=P:problem=w źródle klucz przed znakami przykluczowymi	!	!	!	!	!LO:DY:a:rj	!LO:TX:t=P:problem=napis "Vivace" na pięciolinii przed kluczem	!	!	!	!	!
!LO:TX:Bi:b:t=Vivace	!	!	!	!	!	!LO:TX:i:a:t=Vivace	!	!	!	!	!
!	!	!	!	!	!	!LO:TX:t=P:problem=w źródle klucz przed znakami przykluczowymi	!	!	!	!	!
4r	.	.	4b-\	O-	f	4r	.	.	4r	.	.
!	!	!	!LO:LB:g=original	!	!	!	!	!	!	!	!
=16	=16	=16	=16	=16	=16	=16	=16	=16	=16	=16	=16
!LO:TX:a:t=3.	!	!	!	!	!	!LO:TX:a:t=I	!	!	!LO:TX:a:t=3.	!	!
!LO:TX:t=P:problem=podwójna belka jako pauza wielotaktowa	!	!	!	!	!	!	!	!	!LO:TX:t=P:problem=podwójna belka jako pauza wielotaktowa	!	!
2.r	.	.	4.cc\	-san-	.	2.r	.	.	2.r	.	.
.	.	.	8cc\	-na	.	.	.	.	.	.	.
.	.	.	8cc\	in	.	.	.	.	.	.	.
.	.	.	8cc\	ex-	.	.	.	.	.	.	.
=17	=17	=17	=17	=17	=17	=17	=17	=17	=17	=17	=17
2.r	.	.	4b-/	-cel-	.	4r	.	.	2.r	.	.
.	.	.	4a-X/	.	.	4r	.	.	.	.	.
.	.	.	4g/	.	.	4E-\	O-	.	.	.	.
!	!	!	!	!	!	!LO:LB:g=original	!	!	!	!	!
=18	=18	=18	=18	=18	=18	=18	=18	=18	=18	=18	=18
2.r	.	.	8a-\L	.	.	4.F\	-san-	.	2.r	.	.
.	.	.	8g\	.	.	.	.	.	.	.	.
.	.	.	8a-\	.	.	.	.	.	.	.	.
.	.	.	8b-\	.	.	8F\	-na	.	.	.	.
.	.	.	8cc\	.	.	8F\	in	.	.	.	.
.	.	.	8dd\J	.	.	8F\	ex-	.	.	.	.
!LO:PB:g=original	!	!	!	!	!	!	!	!	!LO:LB:g=original	!	!
=19	=19	=19	=19	=19	=19	=19	=19	=19	=19	=19	=19
!LO:TX:a:i:t=Vivace	!	!	!	!	!	!	!	!	!	!	!
4r	.	.	4ee-\	.	.	4E-\	-cel-	.	4r	.	.
4r	.	.	4e-/	-sis	.	4G\	.	.	4r	.	.
!	!	!LO:DY:a:rj	!	!	!	!	!	!	!	!	!LO:DY:a:rj
4BB-/	O-	f	4r	.	.	4B-\	.	.	4dd\	O-	f
=20	=20	=20	=20	=20	=20	=20	=20	=20	=20	=20	=20
!	!	!	!LO:TX:a:t=I.	!	!	!	!	!	!	!	!
!	!	!	!LO:TX:b:t=I	!	!	!	!	!	!	!	!
!	!	!	!LO:TX:a:t=P:problem=takt dopisany ołówkiem	!	!	!	!	!	!	!	!
4.C/	-san-	.	2.r	.	.	(>8G\L	.	.	4.ee-\	-san-	.
.	.	.	.	.	.	8F\	.	.	.	.	.
.	.	.	.	.	.	8E-\	.	.	.	.	.
8C/	-na	.	.	.	.	8F\	.	.	8ee-\	-na	.
8C/	in	.	.	.	.	8G\	.	.	8ee-\	in	.
8C/	ex-	.	.	.	.	8A-\J)	.	.	8ee-\	ex-	.
!	!	!	!LO:PB:g=original	!	!	!	!	!	!	!	!
=21	=21	=21	=21	=21	=21	=21	=21	=21	=21	=21	=21
4BB-/	-cel-	.	4r	.	.	4B-\	-sis	.	4dd\	-cel-	.
4AA-/	.	.	4r	.	.	4r	.	.	4cc\	.	.
4GG/	.	.	4b-\	O-	.	(>4E-\	o-	.	(>4b-\	.	.
=22	=22	=22	=22	=22	=22	=22	=22	=22	=22	=22	=22
4AA-/	.	.	(<2.a-/	-san-	.	4E-\	-san-	.	8cc\L	.	.
.	.	.	.	.	.	.	.	.	8b-\	.	.
4FF/	.	.	.	.	.	4A-\	.	.	8cc\	.	.
.	.	.	.	.	.	.	.	.	8dd\	.	.
4BB-/	.	.	.	.	.	4F\)	.	.	8ee-\	.	.
.	.	.	.	.	.	.	.	.	8ff\J	.	.
!	!	!	!	!	!	!LO:LB:g=original	!	!	!LO:LB:g=original	!	!
=23	=23	=23	=23	=23	=23	=23	=23	=23	=23	=23	=23
4E-\	.	.	4g/)	.	.	4E-\	.	.	4gg\)	.	.
4E-\	-sis	.	4g/	-na	.	4E-\	-na	.	4ee-\	-sis	.
4r	.	.	4b-\	o-	.	4G\	o-	.	4ee-\	o-	.
!LO:LB:g=original	!	!	!	!	!	!	!	!	!	!	!
=24	=24	=24	=24	=24	=24	=24	=24	=24	=24	=24	=24
!LO:TX:a:t=I.	!	!	!	!	!	!	!	!	!	!	!
2.r	.	.	4.cc\	-san-	.	4.A-\	-san-	.	4.ee-\	-san-	.
.	.	.	8cc\	-na	.	8A-\	-na	.	8ee-\	-na	.
.	.	.	8cc\	in	.	8A-\	in	.	8ee-\	in	.
.	.	.	8cc\	ex-	.	8A-\	ex-	.	8ee-\	ex-	.
=25	=25	=25	=25	=25	=25	=25	=25	=25	=25	=25	=25
4r	.	.	(>4b-/	-cel-	.	(>4G\	-cel-	.	(>4ee-\	-cel-	.
4r	.	.	4a-/	.	.	4F\	.	.	4dd\	.	.
4BB-/	O-	.	4g/)	.	.	4E-\)	.	.	4cc\)	.	.
!	!	!	!LO:LB:g=original	!	!	!	!	!	!	!	!
=26	=26	=26	=26	=26	=26	=26	=26	=26	=26	=26	=26
4.BB-/	-san-	.	2f/	-sis	.	2D\	-sis	.	2b-\	-sis	.
8BB-/	-na	.	.	.	.	.	.	.	.	.	.
8BB-/	in	.	8f/	in	.	8D\	in	.	8b-\	in	.
8BB-/	ex-	.	8f/	ex-	.	8D\	ex-	.	8b-\	ex-	.
!	!	!	!	!	!	!	!	!	!LO:LB:g=original	!	!
=27	=27	=27	=27	=27	=27	=27	=27	=27	=27	=27	=27
4C/	-cel-	.	2f/	-cel-	.	(>4E-\	-cel-	.	(>4an\	-cel-	.
4D/	.	.	.	.	.	4F\	.	.	2b-\	.	.
4E-\	.	.	4g/	.	.	4E-\	.	.	.	.	.
!	!	!	!	!	!	!LO:LB:g=original	!	!	!	!	!
=28	=28	=28	=28	=28	=28	=28	=28	=28	=28	=28	=28
4En\	.	.	4b-/	.	.	4G\	.	.	2cc\	.	.
4F\	.	.	4a-X/	.	.	4A-X\)	.	.	.	.	.
4G\	.	.	[>4cc\	.	.	4B-\	.	.	4een\	.	.
=29	=29	=29	=29	=29	=29	=29	=29	=29	=29	=29	=29
4A-X\	.	.	4cc\]	.	.	4A-\	.	.	2ff\)	.	.
4An\	.	.	4ee-\	.	.	4c\	.	.	.	.	.
4B-\	.	.	4dd\	-sis	.	4B-\	.	.	4ff\	-sis	.
!LO:LB:g=original	!	!	!	!	!	!	!	!	!	!	!
=30	=30	=30	=30	=30	=30	=30	=30	=30	=30	=30	=30
4Bn\	.	.	4ff\	in	.	4d\	sis	.	2gg\	in	.
4c\	.	.	2ee-\	ex-	.	2c\	in	.	.	.	.
4An\	.	.	.	.	.	.	.	.	[>4ff\	ex-	.
!	!	!	!LO:LB:g=original	!	!	!	!	!	!	!	!
=31	=31	=31	=31	=31	=31	=31	=31	=31	=31	=31	=31
4B-X\	-sis	.	2dd\	-cel-	.	2B-\	ex-	.	4ff\]	.	.
4G\	in	.	.	.	.	.	.	.	2ee-X\	-cel-	.
4An\	ex-	.	[>4cc\	.	.	[>4An\	-cel-	.	.	.	.
=32	=32	=32	=32	=32	=32	=32	=32	=32	=32	=32	=32
4F#X\	-cel-	.	4cc\]	.	.	4AnX\]	.	.	2dd\	.	.
(>4G\	.	.	[>2b-\	.	.	2G\	.	.	.	.	.
4En\	.	.	.	.	.	.	.	.	4cc\	.	.
!	!	!	!	!	!	!	!	!	!LO:LB:g=original	!	!
=33	=33	=33	=33	=33	=33	=33	=33	=33	=33	=33	=33
2.Fn\)	.	.	2b-\]	.	.	2.Fn\	.	.	4dd\	.	.
.	.	.	.	.	.	.	.	.	2cc\	.	.
.	.	.	4an/	.	.	.	.	.	.	.	.
!	!	!	!	!	!	!LO:LB:g=original	!	!	!	!	!
=34	=34	=34	=34	=34	=34	=34	=34	=34	=34	=34	=34
2BB-/	-sis	.	4b-/	-sis	.	4D\	-sis	.	4b-\	-sis	.
.	.	.	4r	.	.	4r	.	.	4r	.	.
4BB-/	in	.	4b-\	o-	.	4B-\	O-	.	4r	.	.
=35	=35	=35	=35	=35	=35	=35	=35	=35	=35	=35	=35
!	!	!	!	!	!	!	!	!	!LO:TX:b:t=1.	!	!
[>2.BB-/	ex-	.	4.cc\	-san-	.	4.A-X\	-san-	.	2.r	.	.
.	.	.	8cc\	-na	.	8A-\	-na	.	.	.	.
.	.	.	8cc\	in	.	8A-\	in	.	.	.	.
.	.	.	8cc\	ex-	.	8A-\	ex-	.	.	.	.
!	!	!	!LO:LB:g=original	!	!	!	!	!	!	!	!
=36	=36	=36	=36	=36	=36	=36	=36	=36	=36	=36	=36
2.BB-/]	.	.	(>4b-\	-cel-	.	(>4G\	-cel-	.	4r	.	.
.	.	.	4dd\)	.	.	4F\)	.	.	4r	.	.
.	.	.	4ee-\	-sis	.	4G\	-sis	.	4ee-\	O-	.
!LO:LB:g=original	!	!	!	!	!	!	!	!	!	!	!
=37	=37	=37	=37	=37	=37	=37	=37	=37	=37	=37	=37
2.BB-/	-cel-	.	2cc\	in	.	2A-\	in	.	4.ff\	-san-	.
.	.	.	.	.	.	.	.	.	8ff\	-na	.
.	.	.	4cc\	ex-	.	4A-\	ex-	.	8ff\	in	.
.	.	.	.	.	.	.	.	.	8ff\	ex-	.
!	!	!	!	!	!	!LO:LB:g=original	!	!	!	!	!
=38	=38	=38	=38	=38	=38	=38	=38	=38	=38	=38	=38
2BB-/	-sis	.	(>4b-/	-cel-	.	(>4G\	-cel-	.	(>4ee-\	-cel-	.
.	.	.	4a-/)	.	.	4F\)	.	.	4dd\	.	.
4BB-/	in	.	4g/	-sis	.	4E-\	-sis	.	4cc\)	.	.
!	!	!	!	!	!	!	!	!	!LO:LB:g=original	!	!
=39	=39	=39	=39	=39	=39	=39	=39	=39	=39	=39	=39
2.BB-/	ex-	.	(<4f/	in	.	(>4D\	in	.	[>2.b-\	.	.
.	.	.	4a-/)	.	.	4F\)	.	.	.	.	.
.	.	.	4g/	ex-	.	4E-\	ex-	.	.	.	.
=40	=40	=40	=40	=40	=40	=40	=40	=40	=40	=40	=40
2.BB-/	-cel-	.	2.f/	-cel-	.	(>2E-\	-cel-	.	2.b-\]	.	.
.	.	.	.	.	.	4D\)	.	.	.	.	.
=41	=41	=41	=41	=41	=41	=41	=41	=41	=41	=41	=41
!	!	!	!LO:TX:t=P:problem=fermata bez kropki	!	!	!	!	!	!	!	!
2.EE-;>/ 2.E-	-sis	.	2.g;>/	-sis	.	2.E-;>\	-sis.	.	2.b-;>\	-sis	.
==	==	==	==	==	==	==	==	==	==	==	==
*-	*-	*-	*-	*-	*-	*-	*-	*-	*-	*-	*-
!!!system-decoration: [(s1,s2,s3,s4)]
!!!RDF**kern: > = above
!!!RDF**kern: < = below
!!!EED: Mateusz Mrugas
!!!EST: 2021-03-26
!!!ENC: Berenika Jozajtis
!!!END: 2021-03-05
